X: 24791
T: Maggie Cameron
R: strathspey
M: 4/4
K: Amixolydian
f|"A"e2 c<A (3cde c<A|"A"e>c A>c "E7"e2 f2|"A"e2 c>A (3cde c<A|"G"d>B G>B d2f2|
"A"e2 c<A (3cde c<A|e>c A>c e>A (3agf|e>A c>A (3ceA c<A|"G"d>B G>B d2f2||
"A"e<a c>a e<ac<a|(3gfe a>c "E7"e2f2|e<a c<a e>f g>e|"G"(3dcB g>B d2f2|
"A"e<a c>a e<ac<a|(3gfe a>c "E7"e2g2|(3agf g>e (3faA e>c|"G"(3dcB g>B d2 (3fga||
"A"e2 c<e A>e c<e|A>e c<e A>e a2|d<e c<e A>e c<e|"G"(3dcB g>B d2f2|
"A"e2 c<e A>e c<e|A>e c<e A>e a2|e<a c>a e<a c>a|"G"(3dcB g>B d2f2||
"A"e<a a>g f>e a>e|c>e a>e c<e f2|e<a a>e (3faA e>c|"G"(3dcB g>B d2f2|
"A"e<a a>g f>e a>e|a>A e>d c<e (3efg|(3agf g>e (3faA e>c|"G"(3dcB g>B d2f2||

